!!!!SEGMENT: pl-wtm--iii-41-950_mlynarski-emil--second-mazur-op-7.krn
!!!cenid: 18xx:4277
!!!COM: Młynarski, Emil
!!!COM-rismID: pe50043899
!!!CDT: 1870/07/18-1935/04/05
!!!CNT: Polish
!!!OTL: Second Mazur op. 7
!!!PDT: 1897
!!!AGN:
!!!SMS-siglum: PL-Wtm
!!!SMS-shelfmark: III.41.950
!!!SMS-shelfwork: W
!!!SMS-variant:
!!!SMS-altvar:
!!!NIFC-rismSourceID: 1001152306
!!!NIFC-rismChildID: 1001152306
!!!NIFC-islandoraID: pl-wtm:22980
!!!URL-pdf-islandora: https://repozytorium.nifc.pl/islandora/object/pl-wtm:22980/datastream/PDF/view
!!!URL-scan: https://polish.musicsources.pl/pl/lokalizacje/galeria/druki-muzyczne/17792/6 @EN{Scan on Polish Music Sources Website} @PL{Skany w portalu Dziedzictwo Muzyki Polskiej w otwartym dostępie}
!!!IIIF:
!!!ONB-nifc:
!!!AIN: 2 piano 1 violn
!!!key: A
**kern	**kern	**dynam	**kern	**dynam
*part3	*part2	*part2	*part1	*part1
*staff3	*staff2	*	*staff1	*
*I"Piano.	*I"Piano.	*	*I"Violon.	*
*I'pf	*I'pf	*	*I'vl	*
*ICklav	*ICklav	*	*ICstr	*
*Ipiano	*Ipiano	*	*Ivioln	*
*clefF4	*clefG2	*	*clefG2	*
*k[f#c#g#]	*k[f#c#g#]	*	*k[f#c#g#]	*
*A:	*A:	*	*A:	*
*M3/4	*M3/4	*	*M3/4	*
=1	=1	=1	=1	=1
!	!LO:TX:a:B:t=Tempo di Mazur. Vivo.	!	!LO:TX:a:t=Tempo di Mazur. Vivo.	!
2.r	8.e'^/L	ff	2.r	.
.	16f#'/Jk	.	.	.
!	!LO:TUP:b:problem:klamra łukowa i cyfra	!	!	!
.	(12g#^/L	.	.	.
.	12a/	.	.	.
.	12g#/J)	.	.	.
.	8f#'/L	.	.	.
.	8e'/J	.	.	.
=2	=2	=2	=2	=2
4r	8.b^\L	.	2.r	.
.	16b\Jk	.	.	.
4EE^/ 4BB 4E	4A^/ 4d 4f#	.	.	.
4EE^/ 4BB 4E	4A^/ 4d 4e	.	.	.
=3	=3	=3	=3	=3
2.r	8.ee^\L	.	2.r	.
.	16ff#\Jk	.	.	.
!	!LO:TUP:a	!	!	!
.	(12gg#^\L	.	.	.
.	12aa\	.	.	.
.	12gg#\J)	.	.	.
.	8ff#'\L	.	.	.
.	8ee'\J	.	.	.
=4	=4	=4	=4	=4
4r	8.bb^\L	.	2.r	.
.	16bb\Jk	.	.	.
4E^\ 4B 4e	4a^\ 4dd 4ff#	.	.	.
4E^\ 4B 4e	4g#^\ 4dd 4ee	.	.	.
*clefG2	*	*	*	*
!!LO:LB:g=original	!	!	!	!
=5	=5	=5	=5	=5
*	*8va	*	*	*
4ee'\	4eee'\ 4eeee	.	2.r	.
2b^\	2bb^\ 2bbb	.	.	.
=6	=6	=6	=6	=6
4ee'\	4eee'\ 4eeee	.	2.r	.
2b^\	2bb^\ 2bbb	.	.	.
=7	=7	=7	=7	=7
4ee'^\	4eee'^\ 4eeee	.	2.r	.
4e/	4ee/ 4eee	.	.	.
!	!LO:TX:b:i:t=poco rit.	!	!	!
4e#X/	4ee#X/ 4eee#X	.	.	.
=8	=8	=8	=8	=8
4f#/	4ff#\ 4fff#	.	2.r	.
4gn/	4ggn\ 4gggn	.	.	.
4g#X;/	4gg#X;\ 4ggg#X	.	.	.
*	*X8va	*	*	*
*clefF4	*	*	*	*
=9	=9	=9	=9	=9
!	!LO:TX:a:i:t=a tempo	!	!LO:TX:a:i:t=a tempo	!
2.e^\	4r	f	8dd'u\L 8ee	ff
.	.	.	8dd'\J 8ee	.
.	4d/ 4f# 4g# 4b	.	4dd^\ 4ff#	.
.	4e^/ 4f# 4g# 4cc#	.	(8dd'\L 8ee	.
.	.	.	8dd'\J) 8ee	.
=10	=10	=10	=10	=10
2.E^\	4r	.	8dd'\L 8ff#	.
.	.	.	8dd'\J 8ff#	.
.	4d/ 4f# 4g# 4b	.	4dd^\ 4gg#	.
.	4e^/ 4f# 4g# 4cc#	.	(8dd'\L 8ff#	.
.	.	.	8dd'\J) 8ff#	.
!!LO:LB:g=original	!	!	!	!
=11	=11	=11	=11	=11
2.AA^</ 2.E	4r	.	8cc#'\L 8ee	<
.	.	.	8cc#'\J 8ee	.
.	4c#/ 4e 4a	.	4cc#^\ 4aa	.
.	4e^/ 4a 4cc#	.	(8cc#'\L 8aa	.
.	.	.	8bb'\J)	[
=12	=12	=12	=12	=12
8.AA^/L 8.E	4r	.	4a'u\ 4ccc#	sf
(16AA'/Jk 16E	.	.	.	.
4A\)	4e/ 4a 4cc#	.	2a^u\ 2aa	.
4c#^\	4e^/ 4a 4ee	.	.	.
=13	=13	=13	=13	=13
2.e^\	4r	.	8dd'u\L 8ee	.
.	.	.	8dd'\J 8ee	.
.	4d/ 4f# 4g# 4b	.	4dd^\ 4ff#	.
.	4e^/ 4f# 4g# 4cc#	.	(8dd'\L 8ee	.
.	.	.	8dd'\J) 8ee	.
=14	=14	=14	=14	=14
2.E^\	4r	.	8dd'\L 8ff#	.
.	.	.	8dd'\J 8ff#	.
.	4d/ 4f# 4g# 4b	.	4dd^\ 4gg#	.
.	4e^/ 4f# 4g# 4cc#	.	(8dd'\L 8ff#	.
.	.	.	8dd'\J) 8ff#	.
=15	=15	=15	=15	=15
*	*	*	*^	*
2.AA^/ 2.E	4r	.	(8cc#'\L 8ee	8ryy	<
.	.	.	8ee'\J)	8ee\	.
.	4c#/ 4e 4a	.	4a^\ 4aa	4ryy	.
.	4e^/ 4a 4cc#	.	(8a'\L 8aa	4ryy	.
.	.	.	8a'\J) 8ccc#	.	[
*	*	*	*v	*v	*
=16	=16	=16	=16	=16
8.Gn^\L	4r	.	4a^u\ 4fff#	sf
(>16G'\Jk	.	.	.	.
4A\)	4e/ 4a 4cc#	.	2a^u\ 2eee	.
4c#^\	4e^/ 4a 4ee	.	.	.
!!LO:LB:g=original	!	!	!	!
=17	=17	=17	=17	=17
4F#\ 4A 4e	4a\ 4ee 4aa	f	(8aaa^\L	.
.	.	.	8aa\J)	.
2F#^\ 2A 2d	2a^\ 2dd 2aa	.	4aa\	.
.	.	.	(8aa\L	.
.	.	.	8aaa\J)	.
=18	=18	=18	=18	=18
4Fn\ 4A 4e	4a\ 4ee 4aa	.	(8aaa^\L	.
.	.	.	8aa\J)	.
2F^\ 2A 2d	2a^\ 2dd 2aa	.	4aa'\	.
.	.	.	4r	.
=19	=19	=19	=19	=19
4E\ 4A 4d	4e/ 4a 4dd 4ee	.	(8eee^\L	.
.	.	.	8ee\J)	.
2E^\ 2A 2c#	2e^>/ 2a 2cc# 2ee	.	4ee\	.
.	.	.	(8ee\L	.
.	.	.	8eee\J)	.
=20	=20	=20	=20	=20
4E\ 4A 4d	4e/ 4a 4dd 4ee	.	(8eee^\L	.
.	.	.	8ee\J)	.
2E^\ 2A 2c#	2e^>/ 2a 2cc# 2ee	.	4ee'\	.
.	.	.	4r	.
=21	=21	=21	=21	=21
2D#X\ 2d#X	2f#\ 2b 2ff#	mf	(8ff#\L	mf
.	.	.	8gg#\J)	.
.	.	.	(8gg#\L	.
.	.	.	8ff#\J)	.
4Dn\ 4E 4dn	4g#\ 4b 4gg#	.	8bb'\L	.
.	.	.	8ffn'\J	.
=22	=22	=22	=22	=22
2C#\ 2E 2c#	2a\ 2ee 2aa	.	(8ee\L	.
.	.	.	8ff#X\J)	.
.	.	.	(8ff#\L	.
.	.	.	8ee\J)	.
4Cn\ 4E 4cn	4a\ 4dd#X 4aa	.	8aa'\L	.
.	.	.	8dd#X'\J	.
=23	=23	=23	=23	=23
2.BB\ 2.E 2.B	2.a\ 2.ddn 2.ff# 2.aa	.	8b'\L	.
.	.	.	8cc#'\J	.
!	!	!	!LO:TUP:a:problem:klamra łukowa i cyfra	!
.	.	.	(12dd\L	.
.	.	.	12ee\	.
.	.	.	12dd\J)	.
.	.	.	(8cc#'\L	.
.	.	.	8b'\J)	.
!!LO:PB:g=original	!	!	!	!
=24	=24	=24	=24	=24
4E\ 4B 4d	2.g#\ 2.dd 2.ff# 2.gg#	.	(8.ee'\L	.
.	.	.	16bb'\Jk)	.
2EE^/ 2E	.	.	2ee^\	.
=25	=25	=25	=25	=25
2.e^\	4r	f	8dd'u\L 8ee	ff
.	.	.	8dd'\J 8ee	.
.	4d/ 4f# 4g# 4b	.	4dd^\ 4ff#	.
.	4e^/ 4f# 4g# 4cc#	.	(8dd'\L 8ee	.
.	.	.	8dd'\J) 8ee	.
=26	=26	=26	=26	=26
2.E^\	4r	.	8dd'\L 8ff#	.
.	.	.	8dd'\J 8ff#	.
.	4d/ 4f# 4g# 4b	.	4dd^\ 4gg#	.
.	4e^/ 4f# 4g# 4cc#	.	(8dd'\L 8ff#	.
.	.	.	8dd'\J) 8ff#	.
=27	=27	=27	=27	=27
2.AA^</ 2.E	4r	.	8cc#'\L 8ee	<
.	.	.	8cc#'\J 8ee	.
.	4c#/ 4e 4a	.	4cc#^\ 4aa	.
.	4e^/ 4a 4cc#	.	(8cc#'\L 8aa	.
.	.	.	8bb'\J)	[
=28	=28	=28	=28	=28
8.AA^/L 8.E	4r	.	4a'u\ 4ccc#	sf
(16AA'/Jk 16E	.	.	.	.
4A\)	4e/ 4a 4cc#	.	2a^u\ 2aa	.
4c#^\	4e^/ 4a 4ee	.	.	.
=29	=29	=29	=29	=29
2.e^\	4r	.	8dd'u\L 8ee	.
.	.	.	8dd'\J 8ee	.
.	4d/ 4f# 4g# 4b	.	4dd^\ 4ff#	.
.	4e^/ 4f# 4g# 4cc#	.	(8dd'\L 8ee	.
.	.	.	8dd'\J) 8ee	.
!!LO:LB:g=original	!	!	!	!
=30	=30	=30	=30	=30
2.E^\	4r	.	8dd'\L 8ff#	.
.	.	.	8dd'\J 8ff#	.
.	4d/ 4f# 4g# 4b	.	4dd^\ 4gg#	.
.	4e^/ 4f# 4g# 4cc#	.	(8dd'\L 8ff#	.
.	.	.	8dd'\J) 8ff#	.
=31	=31	=31	=31	=31
2.AA^/ 2.E	4r	.	8cc#'\L 8ee	<
.	.	.	8ee'\J 8ee	.
.	4c#/ 4e 4a	.	4cc#^\ 4aa	.
.	4e^/ 4a 4cc#	.	(8a'\L 8aa	.
.	.	.	8a'\J) 8ccc#	[
=32	=32	=32	=32	=32
8.Gn^\L	4r	.	4a'u\ 4fff#	sf
(16G'\Jk	.	.	.	.
4A\)	4e/ 4a 4cc#	.	2au\ 2eee	.
4c#^\	4e^/ 4a 4ee	.	.	.
=33	=33	=33	=33	=33
4F#\ 4A 4e	4a\ 4ee 4aa	f	(8aaa^\L	ff
.	.	.	8aa\J)	.
2F#^\ 2A 2d	2a^\ 2dd 2aa	.	4aa\	.
.	.	.	(8aa\L	.
.	.	.	8aaa\J)	.
=34	=34	=34	=34	=34
4Fn\ 4A 4e	4a\ 4ee 4aa	.	(8aaa^\L	.
.	.	.	8aa\J)	.
2F^\ 2A 2d	2a^\ 2dd 2aa	.	4aa'\	.
.	.	.	4r	.
=35	=35	=35	=35	=35
4E\ 4A 4d	4e/ 4a 4dd 4ee	.	(8eee^\L	.
.	.	.	8ee\J)	.
2E^\ 2A 2c#	2e^/ 2a 2cc# 2ee	.	4ee\	.
.	.	.	(8ee\L	.
.	.	.	8eee\J)	.
!!LO:LB:g=original	!	!	!	!
=36	=36	=36	=36	=36
4E\ 4A 4d	4e/ 4a 4dd 4ee	.	(8eee^\L	.
.	.	.	8ee\J)	.
2E^\ 2A 2c#	2e^/ 2a 2cc# 2ee	.	4ee'\	.
.	.	.	(8ee\L	.
.	.	.	8eee\J)	.
=37	=37	=37	=37	=37
4E\ 4A 4d	4e/ 4a 4dd 4ee	.	(8eee^\L	.
.	.	.	8ee\J)	.
2E^\ 2A 2c#	2e^/ 2a 2cc# 2ee	.	4ee'\	.
.	.	.	4r	.
=38	=38	=38	=38	=38
2D#X\ 2d#X	2f#\ 2b 2ff#	mf	(8ff#\L	mf
.	.	.	8gg#\J)	.
.	.	.	(8gg#\L	.
.	.	.	8ff#\J)	.
4Dn\ 4E 4dn	4g#\ 4b 4gg#	.	8bb'\L	.
.	.	.	8ffn'\J	.
=39	=39	=39	=39	=39
!	!	!	!	!
2C#\ 2E 2c#	2a\ 2ee 2aa	.	(8ee\L	.
.	.	.	8ff#X\J)	.
!	!	!	!LO:TX:b:t=cresc._:dur=3es3q:ext=ud:problem:text with extention lines	!
.	.	.	(8gg#'\L	<
.	.	.	8aa'\J)	.
.	.	.	(8qddd/	.
!	!LO:TX:b:t=cresc._:dur=hq:ext=ud:problem:text with extention lines	!	!	!
4BB\ 4F# 4B	4a\ 4dd 4ff# 4aa	<	4ff#^\)	.
=40	=40	=40	=40	=40
4E\ 4B 4d	2.g#\ 2.dd 2.ff# 2.gg#	.	8.gg#\L	.
.	.	.	16aa'\Jk	.
2EE^/	.	.	4bb\v	.
.	.	[[	4ccc#\u	[[
=41	=41	=41	=41	=41
4AAA/ 4AA	4a\ 4cc# 4ee 4aa	f	4av\ 4aa	ff
*	*8va	*	*	*
!	!	!	!LO:TX:a:t=pizz.	!
4E\ 4A 4c# 4e	4aa\ 4ccc# 4eee 4aaa	.	4A'>/ 4e 4cc# 4aa	.
*	*X8va	*	*	*
4r	4r	.	4r	.
!!LO:LB:g=original	!	!	!	!
*kcancel	*kcancel	*	*kcancel	*
=42||	=42||	=42||	=42||	=42||
*k[b-]	*k[b-]	*	*k[b-]	*
!	!	!	!LO:TX:a:t=arco	!
!	!LO:TX:a:B:t=Un poco meno mosso.	!	!LO:TX:a:B:t=Un poco meno mosso.	!
2.DD/ 2.AA 2.D	4r	p	(4.aa\	p
.	4A/ 4d 4f 4a	.	.	.
.	.	.	8ff\L	.
.	4A/ 4d 4f 4a	.	8dd\	.
.	.	.	8ee\J)	.
=43	=43	=43	=43	=43
2.DD/ 2.AA 2.D	4r	.	8.ff'v\L	.
.	.	.	16eeu\Jk	.
.	4A/ 4d 4f 4a	.	4ff~\	.
.	4A/ 4d 4f 4a	.	4dd~\	.
=44	=44	=44	=44	=44
2.DD/ 2.BB- 2.D	4r	.	8.ffv\L	.
.	.	.	16eeu\Jk	.
.	4B-/ 4d 4f 4b-	.	4ff\	.
.	4B-/ 4d 4f 4b-	.	4dd\	.
=45	=45	=45	=45	=45
!	!	!	!LO:TUP:a:problem:klamra łukowa	!
2.DD/ 2.AA 2.D	4r	.	(12ggv\L	.
.	.	.	12ff\)	.
.	.	.	12ee'u\J	.
.	4A/ 4d 4f 4a	.	4ff\	.
.	4A/ 4d 4f 4a	.	4dd\	.
=46	=46	=46	=46	=46
2.AAA/ 2.AA	4r	.	(8av\L	.
.	.	.	8ee\J)	.
.	.	.	(>(16qqeeu/LL	.
.	.	.	16qqff/JJ	.
.	4A/ 4c#X 4g 4a	.	4ee\)	sf
.	4A/ 4c# 4g 4a	.	8dd\L	.
.	.	.	8cc#X\J)	.
!!LO:PB:g=original	!	!	!	!
=47	=47	=47	=47	=47
2.DD/ 2.AA 2.D	4r	.	8.ddv\L	.
.	.	.	16eeu\Jk	.
.	4A/ 4d 4f 4a	.	(4ff\	.
.	4A/ 4d 4f 4a	.	4dd\)	.
=48	=48	=48	=48	=48
2.GGG/ 2.GG	4r	.	(8g/L	<
.	.	.	8a/J	.
.	.	.	(16qqb-/LL	[
!	!LO:TX:b:Bi:t=poco rit._:dur=4q:ext=ud:problem:text with line extensions	!	!LO:TX:b:Bi:t=poco rit._:dur=2q2eh:ext=ud:problem:text with line extensions	!
!	!	!	!	!
.	.	.	16qqcc/JJ	.
.	4B-/ 4d 4e 4b-	.	4b-\)	>
.	4B-/ 4d 4e 4b-	.	8a/L	.
.	.	.	8g/J)	]]
=49	=49	=49	=49	=49
2.AAA/ 2.AA	4r	.	2av/	.
.	4A/ 4c#X 4e 4a	.	.	.
.	4A/ 4c# 4e 4a	.	(4au/	.
=50	=50	=50	=50	=50
!	!	!	!LO:TX:a:t=III.	!
!	!LO:TX:a:i:t=a tempo	!	!LO:TX:a:i:t=a tempo	!
2.DD/ 2.AA 2.D	4r	.	4.aa\	.
.	4A/ 4d 4f 4a	.	.	.
!	!	!	!LO:TX:a:t=II.	!
.	.	.	8ff\L	.
.	4A/ 4d 4f 4a	.	8dd\	.
.	.	.	8ee\J)	.
=51	=51	=51	=51	=51
2.DD/ 2.AA 2.D	4r	.	8.ffv\L	.
.	.	.	16eeu\Jk	.
.	4A/ 4d 4f 4a	.	4ff\	.
.	4A/ 4d 4f 4a	.	4dd\	.
!!LO:LB:g=original	!	!	!	!
=52	=52	=52	=52	=52
2.DD/ 2.BB- 2.D	4r	.	8.ffv\L	.
.	.	.	16eeu\Jk	.
.	4B-/ 4d 4f 4b-	.	4ff\	.
.	4B-/ 4d 4f 4b-	.	4dd\	.
=53	=53	=53	=53	=53
!	!	!	!LO:TUP:a:problem:klamra łukowa	!
2.DD/ 2.AA 2.D	4r	.	(12ggv\L	.
.	.	.	12ff\)	.
.	.	.	12ee'u\J	.
.	4A/ 4d 4f 4a	.	4ff\	.
.	4A/ 4d 4f 4a	.	4dd\	.
=54	=54	=54	=54	=54
2.EE/ 2.E	4r	.	(8ccv\L	.
.	.	.	8bb-\J)	.
.	.	.	(>(16qqbb-/LL	sf
.	.	.	16qqccc/JJ	.
.	4c/ 4g 4b- 4cc	.	4bb-\)	.
.	4c/ 4g 4b- 4cc	.	8aa\L	.
.	.	.	8gg\J)	.
=55	=55	=55	=55	=55
2.FF/ 2.F	4r	.	8.aav\L	<
.	.	.	16bb-u\Jk	[
.	4c/ 4f 4a 4cc	.	(4ccc\	sf >
.	4c/ 4f 4a 4cc	.	4aa\)	]
=56	=56	=56	=56	=56
2.GG/ 2.G	4r	.	(8ee\L	.
.	.	.	8ff\J	.
.	.	.	(16qqgg/LL	.
.	.	.	16qqaa/JJ	.
.	4e/ 4b- 4dd 4ee	.	4gg\)	.
!	!	!LO:HP:b:t=dim.	!	!LO:HP:b:t=dim.
.	4e/ 4b- 4dd 4ee	>	8ff\L	>
.	.	.	8ee\J)	.
=57	=57	=57	=57	=57
*	*^	*	*	*
2.AA\ 2.A	4r	2ryy	p	2.aav\	p
.	4e/ 4a 4cc#X 4ee	.	.	.	.
.	.	.	.	.	.
.	(4e^</	[4e\	sf	.	.
!!LO:LB:g=original	!	!	!	!	!
=58	=58	=58	=58	=58	=58
*^	*	*	*	*	*
*ped	*	*	*	*	*	*
4r	2.AA\ 2.E	4.bn/	2.e\_	.	(32ee^\KKL 32bbn	.
.	.	.	.	.	[8..bn\J [8..ee	.
4E/ 4d	.	.	.	.	2b\]) 2ee]	.
.	.	8cc#X/L	.	.	.	.
4E/ 4d	.	8f#X/	.	.	.	.
.	.	8g#X/J)	.	.	.	.
*Xped	*	*	*	*	*	*
=59	=59	=59	=59	=59	=59	=59
*ped	*	*	*	*	*	*
4r	2.AA\ 2.E	(8.a/L	2.e\_	.	(32ee^\KKL 32ccc#X	.
.	.	.	.	.	[8..a\J [8..ee	.
.	.	16g#X/Jk	.	.	.	.
4E/ 4c#X	.	4a/)	.	.	2a\]) 2ee]	.
4E/ 4c#	.	4f#X'/	.	.	.	.
*Xped	*	*	*	*	*	*
=60	=60	=60	=60	=60	=60	=60
*ped	*	*	*	*	*	*
4r	2.AA\ 2.E	(8.g#X/L	2e\]	.	(32ee^\KKL 32bbn	.
.	.	.	.	.	[8..bn\J [8..ee	.
.	.	16f#X/Jk	.	.	.	.
4E/ 4d	.	4g#/)	.	.	2b\]) 2ee]	.
4E/ 4d	.	4e^</	[4e\	.	.	.
*Xped	*	*	*	*	*	*
=61	=61	=61	=61	=61	=61	=61
*ped	*	*	*	*	*	*
!	!	!LO:TUP:b:problem:klamra łukowa	!	!	!	!
4r	2.AA\ 2.E	(12bn/L	2.e\_	.	(32ee^\KKL 32ccc#X	.
.	.	.	.	.	[8..a\J [8..ee	.
.	.	12a/	.	.	.	.
.	.	12g#X/J	.	.	.	.
4E/ 4c#X	.	4a/	.	.	2a\]) 2ee]	.
4E/ 4c#	.	4f#X'/)	.	.	.	.
*Xped	*	*	*	*	*	*
=62	=62	=62	=62	=62	=62	=62
*ped	*	*	*	*	*	*
4r	2.AA\ 2.E	(4.bn/	2.e\_	.	(32ee^\KKL 32bbn	.
.	.	.	.	.	[8..bn\J [8..ee	.
4E/ 4d	.	.	.	.	2b\]) 2ee]	.
.	.	8cc#X/L	.	.	.	.
4E/ 4d	.	8f#X/	.	.	.	.
.	.	8g#X/J)	.	.	.	.
*Xped	*	*	*	*	*	*
!!LO:LB:g=original	!	!	!	!	!	!
=63	=63	=63	=63	=63	=63	=63
*ped	*	*	*	*	*	*
4r	2.AA\ 2.E	(8.a/L	2e\]	.	(32ee^\KKL 32ccc#X	.
.	.	.	.	.	[8..a\J [8..ee	.
.	.	16g#X/Jk	.	.	.	.
*Xped	*	*	*	*	*	*
4E/ 4c#X	.	4a/)	.	.	2a\]) 2ee]	.
!	!	!	!	!LO:DY:a	!	!
4E/ 4c#	.	4e^</	[4e\	sf	.	.
=64	=64	=64	=64	=64	=64	=64
4r	2.AA\ 2.E	(8.g#X/L	2e\]	.	(32ee^\KKL 32bbn	.
.	.	.	.	.	[8..bn\J [8..ee	.
.	.	16f#X/Jk	.	.	.	.
4E/ 4d	.	4g#/)	.	.	2b\]) 2ee]	.
(4E/	.	(4e/	4ryy	.	.	.
*v	*v	*	*	*	*	*
*	*v	*v	*	*	*
=65	=65	=65	=65	=65
4e\)	4ee\)	.	2.r	.
2Bn^\	2bn^\	.	.	.
=66	=66	=66	=66	=66
2.r	2.r	.	4eee\	.
.	.	.	2bbn^\	.
=67	=67	=67	=67	=67
2.r	2.r	.	4aa\	.
!	!	!	!	!
.	.	.	2eer 2bbnr^\ 2bbbn	.
=68	=68	=68	=68	=68
*	*	*	*^	*
!	!	!	!	!LO:TX:t=cresc._:dur=6q:ext=ud:problem:text with extention lines	!
2.r	2.r	.	4eeu/	4r	<
.	.	.	4eeu/	4e\ 4ee	.
.	.	.	4eenu/	4e#X\ 4ee#X	.
=69	=69	=69	=69	=69	=69
2.r	2.r	.	4ee/	4f#Xu>\ 4ff#X	.
.	.	.	4ee/	4gu>\ 4gg	.
.	.	.	4ee;/	4g#Xu>\ 4gg#X	[[
*	*	*	*v	*v	*
!!LO:PB:g=original	!	!	!	!
*kcancel	*kcancel	*	*kcancel	*
=70||	=70||	=70||	=70||	=70||
*k[f#c#g#]	*k[f#c#g#]	*	*k[f#c#g#]	*
!	!LO:TX:a:B:t=Tempo I.	!	!LO:TX:a:B:t=Tempo I.	!
2.e^\	4r	f	8dd'u\L 8ee	ff
.	.	.	8dd'\J 8ee	.
.	4d/ 4f# 4g# 4b	.	4dd^\ 4ff#	.
.	4e^/ 4f# 4g# 4cc#	.	(8dd'\L 8ee	.
.	.	.	8dd'\J) 8ee	.
=71	=71	=71	=71	=71
2.E^\	4r	.	8dd'\L 8ff#	.
.	.	.	8dd'\J 8ff#	.
.	4d/ 4f# 4g# 4b	.	4dd^\ 4gg#	.
.	4e^/ 4f# 4g# 4cc#	.	(8dd'\L 8ff#	.
.	.	.	8dd'\J) 8ff#	.
=72	=72	=72	=72	=72
2.AA^/ 2.E	4r	.	8cc#'\L 8ee	<
.	.	.	8cc#'\J 8ee	.
.	4c#/ 4e 4a	.	4cc#^\ 4aa	.
.	4e^/ 4a 4cc#	.	(8cc#'\L 8aa	.
.	.	.	8bb'\J)	[
=73	=73	=73	=73	=73
8.AA^/L 8.E	4r	.	4a'u\ 4ccc#	sf
(16AA'/Jk 16E	.	.	.	.
4A\)	4e/ 4a 4cc#	.	2a^u\ 2aa	.
4c#\	4e^/ 4a 4ee	.	.	.
=74	=74	=74	=74	=74
2.e^\	4r	.	8dd'u\L 8ee	.
.	.	.	8dd'\J 8ee	.
.	4d/ 4f# 4g# 4b	.	4dd^\ 4ff#	.
.	4e^/ 4f# 4g# 4cc#	.	(8dd'\L 8ee	.
.	.	.	8dd'\J) 8ee	.
=75	=75	=75	=75	=75
2.E\	4r	.	8dd'\L 8ff#	.
.	.	.	8dd'\J 8ff#	.
.	4d/ 4f# 4g# 4b	.	4dd^\ 4gg#	.
.	4e^/ 4f# 4g# 4cc#	.	(8dd'\L 8ff#	.
.	.	.	8dd'\J) 8ff#	.
=76	=76	=76	=76	=76
2.AA^/ 2.E	4r	.	8cc#'\L 8ee	<
.	.	.	8ee'\J 8ee	.
.	4c#/ 4e 4a	.	4cc#^\ 4aa	.
.	4e^/ 4a 4cc#	.	(8a'\L 8aa	.
.	.	.	8a'\J) 8ccc#	[
=77	=77	=77	=77	=77
8.Gn^\L	4r	.	4a'u\ 4fff#	sf
(16G'\Jk	.	.	.	.
4A\)	4e/ 4a 4cc#	.	2au\ 2eee	.
4c#^\	4e^/ 4a 4ee	.	.	.
!!LO:LB:g=original	!	!	!	!
=78	=78	=78	=78	=78
4F#\ 4A 4e	4a\ 4ee 4aa	f	(8aaa^\L	ff
.	.	.	8aa\J)	.
2F#^\ 2A 2d	2a^\ 2dd 2aa	.	4aa\	.
.	.	.	(8aa\L	.
.	.	.	8aaa\J)	.
=79	=79	=79	=79	=79
4Fn\ 4A 4e	4a\ 4ee 4aa	.	(8aaa^\L	.
.	.	.	8aa\J)	.
2F^\ 2A 2d	2a^\ 2dd 2aa	.	4aa'\	.
.	.	.	4r	.
=80	=80	=80	=80	=80
4E\ 4A 4d	4e/ 4a 4dd 4ee	.	(8eee^\L	.
.	.	.	8ee\J)	.
2E^\ 2A 2c#	2e^/ 2a 2cc# 2ee	.	4ee\	.
.	.	.	(8ee\L	.
.	.	.	8eee\J)	.
=81	=81	=81	=81	=81
4E\ 4A 4d	4e/ 4a 4dd 4ee	.	(8eee^\L	.
.	.	.	8ee\J)	.
2E\ 2A 2c#	2e^/ 2a 2cc# 2ee	.	4ee'\	.
.	.	.	4r	.
=82	=82	=82	=82	=82
2D#X\ 2d#X	2f#\ 2b 2ff#	mf	(8ff#\L	mf
.	.	.	8gg#\J)	.
.	.	.	(8gg#\L	.
.	.	.	8ff#\J)	.
4Dn\ 4E 4dn	4g#\ 4b 4gg#	.	8bb'\L	.
.	.	.	8ffn'\J	.
=83	=83	=83	=83	=83
2C#\ 2E 2c#	2a\ 2ee 2aa	.	(8ee\L	.
.	.	.	8ff#X\J)	.
!	!	!	!	!
!	!	!	!	!LO:HP:t=cresc. ed acceler.
.	.	.	8gg#'\L	<
.	.	.	8aa'\J	.
!	!	!	!	!
.	.	.	(8qddd/	.
!	!	!LO:HP:t=cresc. ed acceler.	!	!
8BB;\ 8F# 8B	8a;\ 8dd 8ff# 8aa	<	8ff#^;\)	.
8r	8r	.	8r	.
=84	=84	=84	=84	=84
4E\ 4B 4d	2.g#\ 2.dd 2.ff# 2.gg#	.	8.gg#\L	.
.	.	.	16aa\Jk	.
2EE^/	.	.	4bbv\	.
.	.	.	4ccc#u\	.
=85	=85	=85	=85	=85
4AAA/ 4AA	4a\ 4cc# 4ee 4aa	ff	4a\ 4aa	ff
*	*8va	*	*	*
!	!	!	!LO:TX:a:t=pizz.	!
4E\ 4A 4c# 4e	4aa\ 4ccc# 4eee 4aaa	.	4A/ 4e 4cc# 4aa	.
*	*X8va	*	*	*
4r	4r	.	4r	.
*	*	*	*	*
!!LO:LB:g=original	!	!	!	!
*kcancel	*kcancel	*	*kcancel	*
=86||	=86||	=86||	=86||	=86||
*k[f#c#]	*k[f#c#]	*	*k[f#c#]	*
*M3/4	*M3/4	*	*M3/4	*
!	!	!	!LO:TX:a:B:t=Trio.	!
2DD^/ 2AA	2D^/ 2A	ff	2.r	.
4D^\ 4A	4d^/ 4a	.	.	.
=87	=87	=87	=87	=87
2D^\ 2A	(8a^/L	.	2.r	.
.	8d/J	.	.	.
.	4a/)	.	.	.
4D^\ 4A	4d^/ 4a	.	.	.
=88	=88	=88	=88	=88
2D^\ 2A	2d^/ 2a	f	2.r	.
*clefG2	*	*	*	*
4d^/ 4a	4dd^\ 4aa	.	.	.
=89	=89	=89	=89	=89
2d^/ 2a	(8aa^\L	.	2.r	.
.	8dd\J	.	.	.
.	4aa\)	.	.	.
4d^/ 4a	4dd^\ 4aa	.	.	.
=90	=90	=90	=90	=90
!	!	!	!LO:TX:t=sul G_:dur=12q9h34e:ext=ud:problem:text with extention lines	!
4d'/ 4a	4dd'\ 4ff# 4ddd	p	4A^u/	ff
4d'/ 4a	4dd'\ 4ff# 4ddd	.	2f#^u/	.
4d'/ 4a	4dd'\ 4ff# 4ddd	.	.	.
=91	=91	=91	=91	=91
4d'/ 4e 4b	4dd'\ 4gg 4ddd	.	8g^u/L	.
.	.	.	8b^/J	.
4d'/ 4e 4b	4dd'\ 4gg 4ddd	.	2e^/	.
4d'/ 4e 4b	4dd'\ 4gg 4ddd	.	.	.
=92	=92	=92	=92	=92
4d'/ 4e 4a	4ee'\ 4gg 4ccc#	.	8e^u/L	.
.	.	.	8f#^/J	.
4d'/ 4e 4a	4ee'\ 4gg 4ccc#	.	4g^/	.
4d'/ 4e 4a	4ee'\ 4gg 4ccc#	.	4g^/	.
!!LO:LB:g=original	!	!	!	!
=93	=93	=93	=93	=93
4d'/ 4f# 4a	4dd'\ 4ff# 4ddd	.	8f#^u/L	.
.	.	.	8a^/J	.
4d'/ 4f# 4a	4dd'\ 4ff# 4ddd	.	2d^/	.
4d'/ 4f# 4a	4dd'\ 4ff# 4ddd	.	.	.
=94	=94	=94	=94	=94
4d'/ 4f# 4b	4dd'\ 4ff# 4ddd	.	8B^u/L	.
.	.	.	8c#^/J	.
4d'/ 4f# 4b	4dd'\ 4ff# 4ddd	.	4d^/	.
4d'/ 4f# 4b	4dd'\ 4ff# 4ddd	.	4d^/	.
=95	=95	=95	=95	=95
*	*8va	*	*	*
4d'/ 4e 4g 4b	4ee'/ 4bb 4eee	.	8e^u/L	.
.	.	.	8f#^/J	.
4d'/ 4e 4g 4b	4ee'/ 4bb 4eee	.	[2g/	.
4d'/ 4e 4g 4b	4ee'/ 4bb 4eee	.	.	.
=96	=96	=96	=96	=96
2d/ 2a 2dd	2ff#/ 2aa 2ddd	.	8g/L]	.
.	.	.	8f#'/	.
.	.	.	8e'/	.
.	.	.	8d'/	.
4B/ 4e 4g#X	4ee/ 4gg#X 4ddd 4eee	.	8c#'/	.
.	.	.	8d'/J	.
=97	=97	=97	=97	=97
2A/ 2c# 2e 2a	2ee/ 2aa 2ccc# 2eee	.	8d#X^/L	.
.	.	.	8f#^/J	.
.	.	.	4e^/	.
4A/ 4c# 4e 4a	4ee/ 4aa 4ccc# 4eee	.	4A^/	.
=98	=98	=98	=98	=98
!	!LO:TX:a:t=*)	!	!	!
2.d/ 2.f# 2.a	8r	mp	4dn^u/	.
!	!	!LO:DY:a	!	!
.	(8aa\L	pp	.	.
.	8aaa\	.	2f#^u/	.
.	8fff#\	.	.	.
.	8ddd\	.	.	.
.	8aa\J)	.	.	.
=99	=99	=99	=99	=99
2.d/ 2.g 2.b	8r	.	8g^u/L	.
.	(8bb\L	.	8b^/J	.
.	8bbb\	.	2e^/	.
.	8ggg\	.	.	.
.	8eee\	.	.	.
.	8bb\J)	.	.	.
!!LO:PB:g=original	!	!	!	!
=100	=100	=100	=100	=100
2.d/ 2.g 2.a 2.cc#	8r	.	8e^u/L	.
.	(8ccc#\L	.	8f#^/J	.
.	8cccc#\	.	4g^/	.
.	8aaa\	.	.	.
.	8ggg\	.	4g^/	.
.	8eee\J)	.	.	.
=101	=101	=101	=101	=101
2.d/ 2.f# 2.a 2.dd	8r	.	8f#^u/L	.
.	(8ddd\L	.	8a^/J	.
.	8dddd\	.	2d^/	.
.	8aaa\	.	.	.
.	8fff#\	.	.	.
.	8ddd\J)	.	.	.
=102	=102	=102	=102	=102
2.d/ 2.f# 2.b	8r	.	8B^u/L	.
.	(8bb\L	.	8c#^/J	.
.	8bbb\	.	4d^/	.
.	8fff#\	.	.	.
.	8ddd\	.	4d^/	.
.	8bb\J)	.	.	.
=103	=103	=103	=103	=103
2.d/ 2.e 2.g 2.b	8r	.	8e^u/L	.
.	(8bb\L	.	8f#^/J	.
.	8bbb\	.	[2gu/	.
.	8ggg\	.	.	.
.	8eee\	.	.	.
.	8bb\J)	.	.	.
=104	=104	=104	=104	=104
2.d/ 2.g 2.a 2.cc#	8r	.	8g/L]	.
.	(8ccc#\L	.	8f#'/	.
.	8cccc#\	.	8g'/	.
.	8aaa\	.	8f#'/	.
.	8ggg\	.	8e'/	.
.	8ccc#\J)	.	8f#'/J	.
=105	=105	=105	=105	=105
2d/ 2f# 2a 2dd	8r	.	2d/	.
.	(8ddd\L	.	.	.
.	8dddd\	.	.	.
.	8aaa\	.	.	.
4r	8fff#\	.	4r	.
.	8ddd\J)	.	.	.
*	*	*	*	*
*clefF4	*X8va	*	*	*
!!LO:LB:g=original	!	!	!	!
=106	=106	=106	=106	=106
2.D\ 2.A	8r	p	4av/	p
.	(8a\L	.	.	.
.	8aa\	.	2ff#u\	.
.	8ff#\	.	.	.
.	8dd\	.	.	.
.	8a\J)	.	.	.
=107	=107	=107	=107	=107
2.D\ 2.G 2.B	8r	.	(8gg'\L	.
.	(8b\L	.	8bb'\J)	.
.	8bb\	.	2ee\	.
.	8gg\	.	.	.
.	8ee\	.	.	.
.	8b\J)	.	.	.
=108	=108	=108	=108	=108
2.D\ 2.G 2.A 2.c#	8r	.	(8ee'\L	.
.	(8cc#\L	.	8ff#'\J)	.
.	8ccc#\	.	4gg\	.
.	8aa\	.	.	.
.	8gg\	.	4gg\	.
.	8cc#\J)	.	.	.
=109	=109	=109	=109	=109
2.D\ 2.F# 2.A 2.d	8r	.	8ff#'\L	.
.	(8dd\L	.	8aa'\J	.
.	8ddd\	.	2dd\	.
.	8aa\	.	.	.
.	8ff#\	.	.	.
.	8dd\J)	.	.	.
=110	=110	=110	=110	=110
2.D\ 2.Fn 2.B-X	8r	.	(8dd'\L	.
.	(8fn\L	.	8ee-X'\J)	.
.	8ffn\	.	4ffn\	.
.	8dd\	.	.	.
.	8b-X\	.	4ff\	.
.	8f\J)	.	.	.
=111	=111	=111	=111	=111
2.Cn\ 2.Fn 2.B-X	8r	.	8ee-X\L	<
.	(8g\L	.	8ffn\J	.
.	8gg\	.	2gg\	.
.	8ee-X\	.	.	.
.	8b-X\	.	.	.
.	8g\J)	.	.	[[
!!LO:LB:g=original	!	!	!	!
=112	=112	=112	=112	=112
2Fn\ 2e-X	2fn/ 2a	.	(4.aav\	>
.	.	.	8gg'\L	.
4F\ 4e-	4f/ 4a	.	8ffn'\	.
.	.	.	8ee-X'\J)	]]
=113	=113	=113	=113	=113
2B-X\ 2d	2fn/ 2b-X	.	2.dd\	.
4B-\ 4d	4f/ 4b-	.	.	.
=114	=114	=114	=114	=114
2.B-X\ 2.d	8r	.	(8dd'\L	.
.	(8a-X\L	.	8ee-X'\J)	.
.	8ffn\	.	4ffn\	.
.	8dd\	.	.	.
.	8cc-X\	.	4ff\	.
.	8a-\J)	.	.	.
=115	=115	=115	=115	=115
2.B-X\ 2.cn 2.e-X	8r	.	8ee-X\L	<
.	(8g\L	.	8ffn\J	.
.	8gg\	.	2gg\	[[
.	8ee-X\	.	.	.
.	8ccn\	.	.	.
.	8g\J)	.	.	.
=116	=116	=116	=116	=116
2B-X\ 2e-X	2fn/ 2a 2ccn	sf	(4.cccnv\	sf >
.	.	.	8aa'\L	.
4B-\ 4e-	4f/ 4a 4cc	.	8ffn'\	.
.	.	.	8ee-X'\J)	]
=117	=117	=117	=117	=117
2B-X\ 2d	2fn/ 2b-X 2dd	.	2.dd\	.
4B-\ 4d	4f/ 4b- 4dd	.	.	.
=118	=118	=118	=118	=118
2B-X\ 2e	2fn/ 2a 2ccn	pp	(4.cccn\	pp
.	.	.	8aa'\L	.
4B-\ 4e	4f/ 4a 4cc	.	8ffn'\	.
.	.	.	8ee-X'\J)	.
!!LO:LB:g=original	!	!	!	!
=119	=119	=119	=119	=119
2B-X\ 2d	2fn/ 2b-X 2dd	.	8dd\L	.
.	.	.	8ee-X\J	.
.	.	.	4ffn\	.
4B-\ 4d	4f/ 4b- 4dd	.	4ff\	.
=120	=120	=120	=120	=120
(4g^\	2.a-X\ 2.bn 2.dd	mf	8ffn\L	mf
.	.	.	8gg\J	.
2fn\)	.	.	4ff\	.
.	.	.	8ee-X\L	.
.	.	.	8dd\J	.
=121	=121	=121	=121	=121
2B-X\ 2e-X	2g\ 2ccn 2ee-X	.	8ccn\L	.
.	.	.	8dd\J	.
.	.	.	4ee-X\	.
4B-\ 4e-	4g\ 4cc 4ee-	.	4ee-\	.
=122	=122	=122	=122	=122
(4g-X^\	2.a\ 2.ccn 2.ee-X	.	8ee-X\L	.
.	.	.	8ffn\J	.
2fn\)	.	.	4ee-\	.
.	.	.	8dd\L	.
.	.	.	8ccn\J	.
=123	=123	=123	=123	=123
4B-X\	4fn/ 4b-X 4dd	.	8b-X\L	.
.	.	.	8ccn\J	.
2B-\	2f/ 2b- 2dd	.	4dd\	.
.	.	.	4dd\	.
=124	=124	=124	=124	=124
4G\	4e/ 4b-X 4dd	.	8b-X\L	.
.	.	.	8cc#\J	.
2G\	2e/ 2b- 2dd	.	4dd\	.
.	.	.	4dd\	.
=125	=125	=125	=125	=125
4G-X\	4e/ 4b-X 4dd	.	8b-X\L	.
.	.	.	8ccn\J	.
!	!LO:TX:b:B:i:t=rit._:dur=2hq:ext=ud:problem:text with line extensions	!	!LO:TX:b:B:i:t=rit._:dur=4q2e:ext=ud:problem:text with line extensions	!
!	!	!	!	!
2G-\	2e/ 2b- 2dd	.	4dd\	.
.	.	.	4dd\	.
=126	=126	=126	=126	=126
2Fn\ 2e-X	2fn/ 2b-X 2ccn	.	8ccn\L	.
.	.	.	8dd\J	.
.	.	.	4ffn\	.
4F\ 4e-	4a\ 4cc 4ffn	.	4ff\	.
!!LO:PB:g=original	!	!	!	!
=127	=127	=127	=127	=127
!	!LO:TX:a:i:t=a tempo	!	!LO:TX:a:i:t=a tempo	!
4BB-X/	4dd\	mf	8r	.
*	*	*	*tremolo	*
!	!	!	!LO:TREM:dots=2	!
.	.	.	16ffn'\LL	p
.	.	.	16ff'\	.
4Fn\ 4B-X 4d	2ffn\	.	16fffn'\	.
.	.	.	16fff'\	.
.	.	.	16ddd'\	.
.	.	.	16ddd'\	.
4F\ 4B- 4d	.	.	16bb-X'\	.
.	.	.	16bb-'\	.
.	.	.	16ff'\	.
.	.	.	16ff'\JJ	.
=128	=128	=128	=128	=128
4BB-X/	8ee-X\L	.	8r	.
.	8gg\J	.	16gg\LL	.
.	.	.	16gg\	.
4G\ 4cn 4e-X	2ccn\	.	16ggg\	.
.	.	.	16ggg\	.
.	.	.	16eee-X\	.
.	.	.	16eee-\	.
4G\ 4c 4e-	.	.	16cccn\	.
.	.	.	16ccc\	.
.	.	.	16gg\	.
.	.	.	16gg\JJ	.
*clefG2	*	*	*	*
=129	=129	=129	=129	=129
4A/	8ccn\L	.	8r	.
.	8dd\J	.	16aa\LL	.
.	.	.	16aa\	.
4e-X/ 4fn	4ee-X\	.	16aaa\	.
.	.	.	16aaa\	.
.	.	.	16fffn\	.
.	.	.	16fff\	.
4e-/ 4f	4ee-\	.	16cccn\	.
.	.	.	16ccc\	.
.	.	.	16aa\	.
.	.	.	16aa\JJ	.
=130	=130	=130	=130	=130
4B-X/	8dd\L	.	8r	.
.	8ffn\J	.	16bb-X\LL	.
.	.	.	16bb-\	.
4d/ 4fn	2b-X\	.	16bbb-X\	.
.	.	.	16bbb-\	.
.	.	.	16fffn\	.
.	.	.	16fff\	.
4d/ 4f	.	.	16ddd\	.
.	.	.	16ddd\	.
.	.	.	16bb-\	.
.	.	.	16bb-\JJ	.
=131	=131	=131	=131	=131
4Bn/	8dd\L	f	8r	.
.	8ee\J	.	16aa-X\LL	.
.	.	.	16aa-\	.
4d/ 4a-X	4ffn\	.	16aaa-X\	.
.	.	.	16aaa-\	.
.	.	.	16fffn\	.
.	.	.	16fff\	.
4d/ 4a-	4ff\	.	16ddd\	.
.	.	.	16ddd\	.
.	.	.	16aa-\	.
.	.	.	16aa-\JJ	.
=132	=132	=132	=132	=132
4cn/	8ffn\L	.	8r	.
.	8gg\J	.	16aan\LL	.
.	.	.	16aa\	.
4fn/ 4a	2aa\	.	16aaan\	.
.	.	.	16aaa\	.
.	.	.	16fffn\	.
.	.	.	16fff\	.
4f/ 4a	.	.	16cccn\	.
.	.	.	16ccc\	.
.	.	.	16aa\	.
.	.	.	16aa\JJ	.
!!LO:LB:g=original	!	!	!	!
=133	=133	=133	=133	=133
4d/	8gg'\L	.	8r	.
.	8aa'\J	.	16ee\LL	.
.	.	.	16ee\	.
!	!LO:TUP:a:problem:klamra łukowa	!	!	!
4e/ 4a	(12bb-X\L	.	16eee\	.
.	.	.	16eee\	.
.	12ccc#\	.	.	.
.	.	.	16ccc#X\	.
.	12bb-\J)	.	.	.
.	.	.	16ccc#\	.
!	!LO:TX:b:t=crescendo._:dur=13eh2q:ext=ud:problem:text with extention lines	!	!LO:TX:b:t=crescendo_:dur=7e4q:ext=ud:problem:text with extention lines	!
4e/ 4a	8aa'\L	<	16aa\	<
.	.	.	16aa\	.
.	8gg'\J	.	16ee\	.
.	.	.	16ee\JJ	.
=134	=134	=134	=134	=134
4d/	8ffn\L	.	8r	.
.	8gg\J	.	16ffn\LL	.
.	.	.	16ff\	.
4fn/ 4a	2aa\	.	16fffn\	.
.	.	.	16fff\	.
.	.	.	16ddd\	.
.	.	.	16ddd\	.
4f/ 4a	.	.	16aa\	.
.	.	.	16aa\	.
.	.	.	16ff\	.
.	.	.	16ff\JJ	.
=135	=135	=135	=135	=135
4d#X/	8aa\L	.	4r	.
.	8bb\J	.	.	.
4f#/ 4a 4ccn	4ccc#'\	.	4d#X'\ 4ccn 4aa	.
4f#/ 4a 4cc	4ccc#'\	.	4d#^\ 4cc 4aa	.
=136	=136	=136	=136	=136
4d#X/	8aa'\L	.	4r	.
.	8bb'\J	.	.	.
!	!LO:TUP:a:problem:klamra łukowa	!	!	!
4f#/ 4a 4ccn	(12cccn\L	.	4f#'\ 4dd#X 4cccn	.
.	12dddn\	.	.	.
.	12ccc\J)	.	.	.
4f#/ 4a 4cc	8bb-y'\L	.	4f#^\ 4dd# 4ccc	.
.	8aa'\J	[[	.	.
=137	=137	=137	=137	=137
*	*8va	*	*	*
4d#X/	8aaa'\L	ff	4r	[[
.	8bbb'\J	.	.	.
4f#/ 4a 4ccn	4ccccn'\	.	4a'\ 4ff# 4ddd#X	ff
4f#/ 4a 4cc	4cccc'\	.	4a^\ 4ff# 4ddd#	.
!!LO:LB:g=original	!	!	!	!
=138	=138	=138	=138	=138
4d#X/	8aaa'\L	.	4r	.
.	8bbb'\J	.	.	.
!	!LO:TUP:a:problem:klamra łukowa	!	!	!
4f#/ 4a 4ccn	(12ccccn\L	.	4ccn'^\ 4aa 4fff#	.
.	12ddddn\	.	.	.
.	12cccc\J)	.	.	.
4f#/ 4a 4cc	8bbb'\L	.	4r	.
.	8aaa'\J	.	.	.
=139	=139	=139	=139	=139
4d#X/ 4f# 4a 4ccn	4aaa\	.	8aa^\L	.
.	.	.	8bb'\J	.
!	!	!	!	!
*	*X8va	*	*Xtremolo	*
!	!	!	!LO:TUP:a:problem:klamra łukowa	!
4r	4r	.	(12cccn\L	.
.	.	.	12ddd\	.
.	.	.	12ccc\J)	.
4r	4r	.	8bb'\L	.
.	.	.	8aa'\J	.
=140	=140	=140	=140	=140
2.r	2.r	.	8a'^/L	.
.	.	.	8b'/J	.
!	!	!	!LO:TUP:a:problem:klamra łukowa	!
.	.	.	(12ccn\L	.
.	.	.	12dd\	.
.	.	.	12cc\J)	.
.	.	.	8b'/L	.
.	.	.	8a'/J	.
=141	=141	=141	=141	=141
2.r	2.r	.	8A^/L	.
.	.	.	8B'/J	.
!	!	!	!LO:TUP:b:problem:klamra łukowa	!
.	.	.	(12cn/L	.
.	.	.	12d/	.
.	.	.	12c/J)	.
.	.	.	8B'/L	.
.	.	.	8A'/J	.
=142	=142	=142	=142	=142
!	!LO:TX:b:B:i:t=rit._:dur=h:ext=ud:problem:text with line extensions	!	!	!
!	!	!	!LO:TX:b:i:t=rit.	!
2.r	2.r	.	8a'/L	.
.	.	.	8b'/J	.
!	!	!	!LO:TUP:a:problem:klamra łukowa	!
.	.	.	(12ccn\L	.
.	.	.	12dd\	.
.	.	.	12cc\J)	.
.	.	.	8b'/L	.
.	.	.	8a'/J	.
*clefF4	*	*	*	*
=143||	=143||	=143||	=143||	=143||
*k[f#c#g#]	*k[f#c#g#]	*	*k[f#c#g#]	*
!	!	!	!LO:TX:a:t=Mazur.	!
!	!	!	!LO:TX:a:i:t=a tempo	!
(>8qD#X/	.	.	.	.
2.AA^/) 2.E	4r	.	8dd'u\L 8ee	ff
.	.	.	8dd'\J 8ee	.
!	!LO:TX:a:t=Mazur.	!	!	!
!	!LO:TX:b:i:t=a tempo	!	!	!
.	4d/ 4f# 4g# 4b	.	4dd^\ 4ff#	.
.	4e^/ 4f# 4g# 4cc#	.	(8dd'\L 8ee	.
.	.	.	8dd'\J) 8ee	.
=144	=144	=144	=144	=144
(>8qD#X/	.	.	.	.
2.AA^/) 2.E	4r	.	8dd'\L 8ff#	.
.	.	.	8dd'\J 8ff#	.
.	4d/ 4f# 4g# 4b	.	4dd^\ 4gg#	.
.	4e^/ 4f# 4g# 4cc#	.	(8dd'\L 8ff#	.
.	.	.	8dd'\J) 8ff#	.
=145	=145	=145	=145	=145
(>8qD#X/	.	.	.	.
2.AA^/) 2.E	4r	.	8cc#'\L 8ee	<
.	.	.	8cc#'\J 8ee	.
.	4c#/ 4e 4a	.	4cc#^\ 4aa	.
.	4e^/ 4a 4cc#	.	(8cc#'\L 8aa	.
.	.	.	8bb'\J)	[
=146	=146	=146	=146	=146
(>8qD#X/	.	.	.	.
2.AA^/) 2.E	4r	.	4a'u\ 4ccc#	sf
.	4e/ 4a 4cc#	.	2a^u\ 2aa	.
.	4e^/ 4a 4cc# 4ee	.	.	.
=147	=147	=147	=147	=147
(>8qDD#X/	.	.	.	.
2.AAA^/) 2.EE	4r	.	8dd'\L 8ee	.
.	.	.	8dd'\J 8ee	.
.	4d/ 4f# 4g# 4b	.	4dd^\ 4ff#	.
.	4e^/ 4f# 4g# 4cc#	.	(8dd'\L 8ee	.
.	.	.	8dd'\J) 8ee	.
=148	=148	=148	=148	=148
(>8qDD#X/	.	.	.	.
2.AAA^/) 2.EE	4r	.	8dd'\L 8ff#	.
.	.	.	8dd'\J 8ff#	.
.	4d/ 4f# 4g# 4b	.	4dd^\ 4gg#	.
.	4e^/ 4f# 4g# 4cc#	.	(8dd'\L 8ff#	.
.	.	.	8dd'\J) 8ff#	.
!!LO:LB:g=original	!	!	!	!
=149	=149	=149	=149	=149
(>8qDD#X/	.	.	.	.
2.AAA^/) 2.EE	4r	.	8cc#'\L 8ee	<
.	.	.	8ee'\J 8ee	.
.	4c#/ 4e 4a	.	4cc#^\ 4aa	.
.	4e^/ 4a 4cc#	.	(8a'\L 8aa	.
.	.	.	8a'\J) 8ccc#	[
=150	=150	=150	=150	=150
(>8qDD#X/	.	.	.	.
2.AAA/) 2.EE	4r	.	4au\ 4fff#	sf
.	4e/ 4a 4cc#	.	2au\ 2eee	.
.	4gn^\ 4a 4ee	.	.	.
=151	=151	=151	=151	=151
4F#\ 4A 4e	4a\ 4ee 4aa	f	(8aaa^\L	ff
.	.	.	8aa\J)	.
2F#\ 2A 2d	2a\ 2dd 2aa	.	4aa\	.
.	.	.	(8aa\L	.
.	.	.	8aaa\J)	.
=152	=152	=152	=152	=152
4Fn\ 4A 4e	4a\ 4ee 4aa	.	(8aaa^\L	.
.	.	.	8aa\J)	.
2F\ 2A 2d	2a^\ 2dd 2aa	.	4aa'\	.
.	.	.	4r	.
=153	=153	=153	=153	=153
4E\ 4A 4d	4e/ 4a 4dd 4ee	.	(8eee^\L	.
.	.	.	8ee\J)	.
2E^>\ 2A 2c#	2e^>/ 2a 2cc# 2ee	.	4ee\	.
.	.	.	(8ee\L	.
.	.	.	8eee\J)	.
=154	=154	=154	=154	=154
4E\ 4A 4d	4e/ 4a 4dd 4ee	.	(8eee^\L	.
.	.	.	8ee\J)	.
2E^>\ 2A 2c#	2e^>/ 2a 2cc# 2ee	.	4ee'\	.
.	.	.	4r	.
=155	=155	=155	=155	=155
2D#X\ 2d#X	2f#\ 2b 2ff#	mf	(8ff#\L	mf
.	.	.	8gg#\J)	.
.	.	.	(8gg#\L	.
.	.	.	8ff#\J)	.
4Dn\ 4E 4dn	4g#\ 4b 4gg#	.	8bb'\L	.
.	.	.	8ffn'\J	.
!!LO:PB:g=original	!	!	!	!
=156	=156	=156	=156	=156
2C#\ 2E 2c#	2a\ 2ee 2aa	.	(8ee\L	.
.	.	.	8ff#X\J)	.
!	!	!	!LO:TX:b:t=cresc._:dur=3e3qs:ext=ud:problem:text with extention lines	!
.	.	.	(8gg#'\L	<
.	.	.	8aa'\J)	.
.	.	.	(8qddd/	.
!	!LO:TX:b:t=cresc._:dur=qh:ext=ud:problem:text with extention lines	!	!	!
4C#\ 4F# 4B	4a\ 4dd 4ff# 4aa	<	4ff#^\)	.
=157	=157	=157	=157	=157
4E\ 4B 4d	2.g#\ 2.dd 2.ff# 2.gg#	.	8.gg#\L	.
.	.	.	16aa\Jk	.
2EE^/	.	.	4bb\	.
.	.	[[	4ccc#\	[[
=158	=158	=158	=158	=158
4AAA/ 4AA	4a\ 4cc# 4ee 4aa	f	4a\ 4aa	ff
!	!	!	!	!
.	.	.	(8qa/	.
*	*8va	*	*	*
4E\ 4A 4c# 4e	4aa\ 4ccc# 4eee 4aaa	.	4aar\) 4dddr 4dddd	.
*	*X8va	*	*	*
!	!	!	!	!
4r	4r	.	4r	.
*	*	*	*	*
*kcancel	*kcancel	*	*kcancel	*
=159||	=159||	=159||	=159||	=159||
*k[b-]	*k[b-]	*	*k[b-]	*
!	!LO:TX:a:B:t=Un poco meno mosso.	!	!LO:TX:a:B:t=Un poco meno mosso.	!
2.DD/ 2.AA 2.D	4r	p	(4.aa\	p
.	4A/ 4d 4f 4a	.	.	.
.	.	.	8ff\L	.
.	4A/ 4d 4f 4a	.	8dd\	.
.	.	.	8ee\J)	.
=160	=160	=160	=160	=160
2.DD/ 2.AA 2.D	4r	.	8.ff\L	.
.	.	.	16ee\Jk	.
.	4A/ 4d 4f 4a	.	4ff\	.
.	4A/ 4d 4f 4a	.	4dd\	.
=161	=161	=161	=161	=161
2.DD/ 2.BB- 2.D	4r	.	8.ff\L	.
.	.	.	16ee\Jk	.
.	4B-/ 4d 4f 4b-	.	4ff\	.
.	4B-/ 4d 4f 4b-	.	4dd\	.
=162	=162	=162	=162	=162
!	!	!	!LO:TUP:a:problem:klamra łukowa	!
2.DD/ 2.AA 2.D	4r	.	(12gg\L	.
.	.	.	12ff\)	.
.	.	.	12ee'\J	.
.	4A/ 4d 4f 4a	.	4ff\	.
.	4A/ 4d 4f 4a	.	4dd\	.
!!LO:LB:g=original	!	!	!	!
=163	=163	=163	=163	=163
2.AAA/ 2.AA	4r	.	(8a\L	.
.	.	.	8ee\J)	.
.	.	.	(>(16qqee/LL	sf
.	.	.	16qqff/JJ	.
.	4A/ 4c#X 4g 4a	.	4ee\)	.
.	4A/ 4c# 4g 4a	.	8dd\L	.
.	.	.	8cc#X\J)	.
=164	=164	=164	=164	=164
2.DD/ 2.AA 2.D	4r	.	8.dd\L	.
.	.	.	16ee\Jk	.
.	4A/ 4d 4f 4a	.	(4ff\	.
.	4A/ 4d 4f 4a	.	4dd\)	.
=165	=165	=165	=165	=165
2.GGG/ 2.GG	4r	.	8g/L	<
.	.	.	8a/J	.
.	.	.	(16qqb-/LL	[
!	!LO:TX:b:B:i:t=poco rit._:dur=4q:ext=ud:problem:text with line extensions	!	!LO:TX:a:B:i:t=poco rit._:dur=2qh2e:ext=ud:problem:text with line extensions	!
!	!	!	!	!
.	.	.	16qqcc/JJ	.
.	4B-/ 4d 4e 4b-	.	4b-\)	>
.	4B-/ 4d 4e 4b-	.	8a/L	.
.	.	.	8g/J	]]
=166	=166	=166	=166	=166
2.AAA/ 2.AA	4r	.	2a/	.
.	4A/ 4c#X 4e 4a	.	.	.
.	4A/ 4c# 4e 4a	.	(4au/	.
=167	=167	=167	=167	=167
!	!	!	!LO:TX:a:i:t=a tempo	!
2.DD/ 2.AA 2.D	4r	.	4.aa\	.
!	!LO:TX:a:i:t=a tempo	!	!	!
.	4A/ 4d 4f 4a	.	.	.
.	.	.	8ff\L	.
.	4A/ 4d 4f 4a	.	8dd\	.
.	.	.	8ee\J)	.
=168	=168	=168	=168	=168
2.DD/ 2.AA 2.D	4r	.	8.ff\L	.
.	.	.	16ee\Jk	.
.	4A/ 4d 4f 4a	.	4ff\	.
.	4A/ 4d 4f 4a	.	4dd\	.
!!LO:LB:g=original	!	!	!	!
=169	=169	=169	=169	=169
2.DD/ 2.BB- 2.D	4r	.	8.ff\L	.
.	.	.	16ee\Jk	.
.	4B-/ 4d 4f 4b-	.	4ff\	.
.	4B-/ 4d 4f 4b-	.	4dd\	.
=170	=170	=170	=170	=170
!	!	!	!LO:TUP:a:problem:klamra łukowa	!
2.DD/ 2.AA 2.D	4r	.	(12gg\L	.
.	.	.	12ff\)	.
.	.	.	12ee'\J	.
.	4A/ 4d 4f 4a	.	4ff\	.
.	4A/ 4d 4f 4a	.	4dd\	.
=171	=171	=171	=171	=171
2.EE/ 2.E	4r	.	(8cc\L	.
.	.	.	8bb-\J)	.
.	.	.	(16qqbb-/LL	sf
.	.	.	16qqccc/JJ	.
.	4c/ 4g 4b- 4cc	.	(4bb-\)	.
.	4c/ 4g 4b- 4cc	.	8aa\L	.
.	.	.	8gg\J)	.
=172	=172	=172	=172	=172
2.FF/ 2.F	4r	.	8.aa\L	<
.	.	.	16bb-\Jk	[
.	4c/ 4f 4a 4cc	.	(4ccc\	sf >
.	4c/ 4f 4a 4cc	.	4aa\)	]]
=173	=173	=173	=173	=173
2.GG/ 2.G	4r	.	(8ee\L	.
.	.	.	8ff\J	.
.	.	.	(16qqgg/LL	.
.	.	.	16qqaa/JJ	.
.	4e/ 4b- 4dd 4ee	.	4gg\)	.
!	!	!LO:HP:t=dim.	!	!LO:HP:t=dim.
.	4e/ 4b- 4dd 4ee	>	8ff\L	>
.	.	.	8ee\J)	.
=174	=174	=174	=174	=174
*	*^	*	*	*
2.AA\ 2.A	4r	4ryy	p	2.aa\	p
.	4e/ 4a 4cc#X 4ee	4ryy	.	.	.
!	!	!	!LO:DY:a	!	!
.	(4e^</	[4e\	sf	.	.
!!LO:LB:g=original	!	!	!	!	!
=175	=175	=175	=175	=175	=175
*^	*	*	*	*	*
*ped	*	*	*	*	*	*
4r	2.AA\ 2.E	4.bn/	2.e\_	.	(32ee^\KKL 32bbn	.
.	.	.	.	.	[8..bn\J [8..ee	.
4E/ 4d	.	.	.	.	2b\]) 2ee]	.
.	.	8cc#X/L	.	.	.	.
4E/ 4d	.	8f#X/	.	.	.	.
.	.	8g#X/J)	.	.	.	.
*Xped	*	*	*	*	*	*
=176	=176	=176	=176	=176	=176	=176
*ped	*	*	*	*	*	*
4r	2.AA\ 2.E	(8.a/L	2.e\]	.	(32ee^\KKL 32ccc#X	.
.	.	.	.	.	[8..a\J [8..ee	.
.	.	16g#X/Jk	.	.	.	.
4E/ 4c#X	.	4a/)	.	.	2a\]) 2ee]	.
4E/ 4c#	.	4f#X/	.	.	.	.
*Xped	*	*	*	*	*	*
=177	=177	=177	=177	=177	=177	=177
*ped	*	*	*	*	*	*
4r	2.AA\ 2.E	(8.g#X/L	2e\	.	(32ee^\KKL 32bbn	.
.	.	.	.	.	[8..bn\J [8..ee	.
.	.	16f#X/Jk	.	.	.	.
4E/ 4d	.	4g#/)	.	.	2b\]) 2ee]	.
!	!	!	!	!LO:DY:a	!	!
4E/ 4d	.	4e/	[4e\	sf	.	.
*Xped	*	*	*	*	*	*
=178	=178	=178	=178	=178	=178	=178
*ped	*	*	*	*	*	*
!	!	!LO:TUP:b:problem:klamra łukowa	!	!	!	!
4r	2.AA\ 2.E	(12bn/L	2.e\_	.	(32ee^\KKL 32ccc#X	.
.	.	.	.	.	[8..a\J [8..ee	.
!	!	!	!	!	!	!
.	.	12a/	.	.	.	.
.	.	12g#X/J	.	.	.	.
4E/ 4c#X	.	4a/	.	.	2a\]) 2ee]	.
4E/ 4c#	.	4f#X'/)	.	.	.	.
*Xped	*	*	*	*	*	*
=179	=179	=179	=179	=179	=179	=179
*ped	*	*	*	*	*	*
4r	2.AA\ 2.E	(4.bn/	2.e\_	.	(32ee^\KKL 32bbn	.
.	.	.	.	.	[8..bn\J [8..ee	.
4E/ 4d	.	.	.	.	2b\]) 2ee]	.
.	.	8cc#X/L	.	.	.	.
4E/ 4d	.	8f#X/	.	.	.	.
.	.	8g#X/J)	.	.	.	.
*Xped	*	*	*	*	*	*
!!LO:LB:g=original	!	!	!	!	!	!
=180	=180	=180	=180	=180	=180	=180
*ped	*	*	*	*	*	*
4r	2.AA\ 2.E	(8.a/L	2e\]	.	(32ee^\KKL 32ccc#X	.
.	.	.	.	.	[8..a\J [8..ee	.
.	.	16g#X/Jk	.	.	.	.
4E/ 4c#X	.	4a/)	.	.	2a\]) 2ee]	.
!	!	!	!	!LO:DY:a	!	!
4E/ 4c#	.	4e^</	[4e\	sf	.	.
*Xped	*	*	*	*	*	*
=181	=181	=181	=181	=181	=181	=181
*ped	*	*	*	*	*	*
4r	2.AA\ 2.E	(8.g#X/L	2e\]	.	(32ee^\KKL 32bbn	.
.	.	.	.	.	[8..bn\J [8..ee	.
.	.	16f#X/Jk	.	.	.	.
*Xped	*	*	*	*	*	*
4E/ 4d	.	4g#/)	.	.	2b\]) 2ee]	.
(4E/	.	(4e/	4ryy	.	.	.
*v	*v	*	*	*	*	*
*	*v	*v	*	*	*
=182	=182	=182	=182	=182
4e\)	4ee\)	.	2.r	.
2Bn^\	2bn^\	.	.	.
=183	=183	=183	=183	=183
2.r	2.r	.	4eee\	.
.	.	.	2bbn^\	.
=184	=184	=184	=184	=184
2.r	2.r	.	4aa\	.
.	.	.	2eer 2bbnr^\ 2bbbn	.
=185	=185	=185	=185	=185
*	*	*	*^	*
!	!	!	!	!LO:TX:b:t=cresc._:dur=6q:ext=ud:problem:text with extention lines	!
2.r	2.r	.	4eeu/	4r	<
.	.	.	4eeu/	4e\ 4ee	.
.	.	.	4eenu/	4e#X\ 4ee#X	.
=186	=186	=186	=186	=186	=186
2.r	2.r	.	4ee/	4f#X\ 4ff#X	.
.	.	.	4ee/	4g\ 4gg	.
.	.	.	4ee;/	4g#X\ 4gg#X	[[
*	*	*	*v	*v	*
!!LO:LB:g=original	!	!	!	!
*kcancel	*	*	*	*
=187||	=187||	=187||	=187||	=187||
*k[f#c#g#]	*k[f#c#g#]	*	*k[f#c#g#]	*
!	!LO:TX:a:B:t=Tempo I.	!	!LO:TX:a:B:t=Tempo I.	!
2.e^\	4r	f	8dd'\L 8ee	ff
.	.	.	8dd'\J 8ee	.
.	4d/ 4f# 4g# 4b	.	4dd^\ 4ff#	.
.	4e^/ 4f# 4g# 4cc#	.	(8dd'\L 8ee	.
.	.	.	8dd'\J) 8ee	.
=188	=188	=188	=188	=188
2.E^\	4r	.	8dd'\L 8ff#	.
.	.	.	8dd'\J 8ff#	.
.	4d/ 4f# 4g# 4b	.	4dd^\ 4gg#	.
.	4e^/ 4f# 4g# 4cc#	.	(8dd'\L 8ff#	.
.	.	.	8dd'\J) 8ff#	.
=189	=189	=189	=189	=189
2.AA^/ 2.E	4r	.	8cc#'\L 8ee	<
.	.	.	8cc#'\J 8ee	.
.	4c#/ 4e 4a	.	4cc#^\ 4aa	.
.	4e^/ 4a 4cc#	.	(8cc#'\L 8aa	.
.	.	.	8bb'\J)	[
=190	=190	=190	=190	=190
8.AA^/L 8.E	4r	.	4a^u\ 4ccc#	sf
(16AA'/Jk 16E	.	.	.	.
4A\)	4e/ 4a 4cc#	.	2a^u\ 2aa	.
4c#\	4e^/ 4a 4ee	.	.	.
=191	=191	=191	=191	=191
2.e^\	4r	.	8dd'u\L 8ee	.
.	.	.	8dd'\J 8ee	.
.	4d/ 4f# 4g# 4b	.	4dd^\ 4ff#	.
.	4e^/ 4f# 4g# 4cc#	.	(8dd'\L 8ee	.
.	.	.	8dd'\J) 8ee	.
=192	=192	=192	=192	=192
2.E^\	4r	.	8dd'\L 8ff#	.
.	.	.	8dd'\J 8ff#	.
.	4d/ 4f# 4g# 4b	.	4dd^\ 4gg#	.
.	4e^/ 4f# 4g# 4cc#	.	(8dd'\L 8ff#	.
.	.	.	8dd'\J) 8ff#	.
!!LO:LB:g=original	!	!	!	!
=193	=193	=193	=193	=193
2.AA^/ 2.E	4r	.	8cc#'\L 8ee	<
.	.	.	8ee'\J 8ee	.
.	4c#/ 4e 4a	.	4cc#^\ 4aa	.
.	4e^/ 4a 4cc#	.	(8a'\L 8aa	.
.	.	.	8a'\J) 8ccc#	[
=194	=194	=194	=194	=194
8.Gn^\L	4r	.	4a'u\ 4fff#	sf
(16G'\Jk	.	.	.	.
4A\)	4e/ 4a 4cc#	.	2au\ 2eee	.
4c#^\	4e^>/ 4a 4ee	.	.	.
=195	=195	=195	=195	=195
4F#\ 4A 4e	4a\ 4ee 4aa	f	(8aaa^\L	ff
.	.	.	8aa\J)	.
2F#^\ 2A 2d	2a^\ 2dd 2aa	.	4aa\	.
.	.	.	(8aa\L	.
.	.	.	8aaa\J)	.
=196	=196	=196	=196	=196
4Fn\ 4A 4e	4a\ 4ee 4aa	.	(8aaa^\L	.
.	.	.	8aa\J)	.
2F\ 2A 2d	2a\ 2dd 2aa	.	4aa'\	.
.	.	.	4r	.
=197	=197	=197	=197	=197
4E\ 4A 4d	4e/ 4a 4dd 4ee	.	(8eee^\L	.
.	.	.	8ee\J)	.
2E^\ 2A 2c#	2e^>/ 2a 2cc# 2ee	.	4ee\	.
.	.	.	(8ee\L	.
.	.	.	8eee\J)	.
=198	=198	=198	=198	=198
4E\ 4A 4d	4e/ 4a 4dd 4ee	.	(8eee^\L	.
.	.	.	8ee\J)	.
2E^\ 2A 2c#	2e^>/ 2a 2cc# 2ee	.	4ee'\	.
.	.	.	4r	.
!!LO:LB:g=original	!	!	!	!
=199	=199	=199	=199	=199
*	*^	*	*^	*
4E\ 4A#X 4c#	(8ggn/L	4gn\ 4gg	.	4ggnTT/	2.ee\	.
.	8cc#/J)	.	.	.	.	.
2E^\ 2A# 2c#	4f#'\ 4ff#	4ryy	.	2ff#^ttt/	.	.
.	4f#'\ 4ff#	4ryy	.	.	.	.
=200	=200	=200	=200	=200	=200	=200
4E\ 4B 4d	(8ggn/L	4gn\ 4gg	.	4ggnTT/	2.ee\	.
.	8dd/J)	.	.	.	.	.
2E^\ 2B 2d	4f#'\ 4ff#	4ryy	.	2ff#^ttt/	.	.
.	4f#'\ 4ff#	4ryy	.	.	.	.
=201	=201	=201	=201	=201	=201	=201
!	!LO:TX:b:t=accelerando e cresc._:dur=6q4h:ext=ud:problem:text with extention lines	!	!	!LO:TX:b:t=accelerando e cresc._:dur=3q5h:ext=ud:problem:text with extention lines	!	!
!	!	!	!	!	!	!
4E\ 4B 4d	(8aa/L	4a\ 4aa	<	4aaTT/	2.ee\	<
.	8dd/J)	.	.	.	.	.
2E^\ 2B 2d	4g#X'\ 4gg#X	4ryy	.	2gg#X^ttt/	.	.
.	4g#'\ 4gg#	4ryy	.	.	.	.
=202	=202	=202	=202	=202	=202	=202
4E\ 4c# 4e	(8bb/L	4b\ 4bb	.	4bbTT/	2.ee\	.
.	8ee/J)	.	.	.	.	.
2E^\ 2c# 2e	4a'\ 4aa	4ryy	.	2aa^ttt/	.	.
.	4a'\ 4aa	4ryy	.	.	.	.
*	*v	*v	*	*	*	*
=203	=203	=203	=203	=203	=203
*ped	*	*	*	*	*
[2.E\ [2.B [2.d	[2.a\ [2.dd [2.ff# [2.aa	.	2.bb^TT/	2.ee\	.
*	*	*	*v	*v	*
=204	=204	=204	=204	=204
2.E\] 2.B] 2.d]	2.a\] 2.dd] 2.ff#] 2.aa]	.	2.eee^TT\	.
*Xped	*	*	*	*
!!LO:LB:g=original	!	!	!	!
=205	=205	=205	=205	=205
*ped	*	*	*	*
[2.E\ [2.B [2.d	[2.g#\ [2.dd [2.ff# [2.gg#	.	2.bbb^TT\	.
.	.	.	(16qqaaa#X\LL	.
.	.	.	16qqbbb\JJ	.
=206	=206	=206	=206	=206
2.E\] 2.B] 2.d]	2.g#\] 2.dd] 2.ff#] 2.gg#]	.	4eeee\)	.
.	.	.	4r	.
.	.	[[	4r	[[
*Xped	*	*	*	*
=207	=207	=207	=207	=207
!	!LO:TX:a:B:t=Presto.	!	!LO:TX:a:B:t=Presto.	!
2.AAA^/ 2.EE 2.AA	4e/ 4a 4cc# 4ee	ff	8aa\L	ff
.	.	.	8bb\J	.
.	2e^/ 2a 2cc# 2ee	.	4ccc#^\	.
.	.	.	8bb\L	.
.	.	.	8aa\J	.
=208	=208	=208	=208	=208
2.AAA^/ 2.EE 2.AA	4e/ 4g# 4dd 4ee	.	8ee^\L	.
.	.	.	8gg#\J	.
.	2e^/ 2g# 2dd 2ee	.	4bb\	.
.	.	.	4bb\	.
=209	=209	=209	=209	=209
2.AAA^/ 2.EE 2.AA	4e/ 4a 4cc# 4ee	.	8aa\L	.
.	.	.	8bb\J	.
.	2e^/ 2a 2cc# 2ee	.	4ccc#^\	.
.	.	.	8bb\L	.
.	.	.	8aa\J	.
=210	=210	=210	=210	=210
2.AAA^/ 2.EE 2.AA	4e/ 4g# 4dd 4ee	.	8ee\L	.
.	.	.	8gg#\J	.
.	2e^/ 2g# 2dd 2ee	.	4bb\	.
.	.	.	4bb\	.
=211	=211	=211	=211	=211
2AAA/ 2EE 2AA	2e/ 2a 2cc# 2ee	.	8aa'\L	.
.	.	.	8bb'\	.
.	.	.	8ccc#'\	.
.	.	.	8bb'\	.
4r	4r	.	8aa'\	.
.	.	.	8gg#'\J	.
!!LO:LB:g=original	!	!	!	!
=212	=212	=212	=212	=212
2FF#/ 2F#	2a\ 2cc# 2ff# 2aa	.	8ff#'\L	.
.	.	.	8gg#'\	.
.	.	.	8aa'\	.
.	.	.	8gg#'\	.
4r	4r	.	8ff#'\	.
.	.	.	8ee'\J	.
=213	=213	=213	=213	=213
2DD/ 2D	2b\ 2dd 2ff# 2bb	.	8dd'\L	.
.	.	.	8ee'\	.
.	.	.	8ff#'\	.
.	.	.	8ee'\	.
4r	4r	.	8dd'\	.
.	.	.	8cc#'\J	.
=214	=214	=214	=214	=214
2EE/ 2E	2ee\ 2gg# 2bb 2eee	.	8b'/L	.
.	.	.	8a'/	.
.	.	.	8g#'/	.
.	.	.	8e'/	.
4r	4r	.	8d'/	.
.	.	.	8B'/J	.
=215	=215	=215	=215	=215
*	*8va	*	*	*
[2.AAA/ [2.AA	[2.aa\ [2.ccc# [2.eee [2.aaa	ff	4A/	ff
.	.	.	4r	.
.	.	.	4r	.
=216	=216	=216	=216	=216
2.AAA/_ 2.AA_	2.aa\_ 2.ccc#_ 2.eee_ 2.aaa_	.	4e\ 4cc# 4aa	ff
.	.	.	4r	.
.	.	.	4r	.
=217	=217	=217	=217	=217
2.AAA/] 2.AA]	2.aa\] 2.ccc#] 2.eee] 2.aaa]	.	4A/	ff
.	.	.	4r	.
.	.	.	4r	.
*clefG2	*	*	*	*
=218	=218	=218	=218	=218
2e/ 2a 2cc# 2ee	[2ccc#\ [2eee [2aaa [2cccc#	ff	([2a\ [2ccc#	ff
4r	8.ccc#\L] 8.eee] 8.aaa] 8.cccc#]	.	8.a\L] 8.ccc#]	.
*	*X8va	*	*	*
.	16A\Jk	.	16A'\Jk)	.
*clefF4	*	*	*	*
=219	=219	=219	=219	=219
2AAA^>/ 2AA	2A/	.	2A^>/	.
4r	4r	.	4r	.
==	==	==	==	==
*-	*-	*-	*-	*-
!!!system-decoration: s1{(s2,s3)}
!!!RDF**kern: > = above
!!!RDF**kern: < = below
!!!ENC: Anastazja Marusiak
!!!END: 2022-12-01
!!!ENC: Jan Barakat
!!!END: 2022-12-05
!!!YEC: Copyright 2022 Narodowy Instytut Fryderyka Chopina (https://polishscores.org)
!!!YEM: License CC-BY-4.0 (https://creativecommons.org/licenses/by/4.0)
